X:1
T:Lads of the Village. RH.178, The
L:1/8
Q:1/4=140
M:2/4
I:linebreak $
K:G
V:1 treble 
V:1
 G2 g>d | ecBG | A>cBG | FAFD | G2 g>d | ec BG | A>cBG | (D/G/F/A/) G2 :: g>fgd | ecBG |$ g>fge | %11
 a>gfd | g>fge | ecBG | A>cBG | (D/G/F/A/) G2 :| %16
